X:1
T:Title
%%score { ( 1 3 ) | ( 2 4 ) }
L:1/8
M:6/8
K:G
V:1 treble nm="Grand Piano"
V:3 treble 
V:2 treble 
V:4 treble 
V:1
 z3 z2[Q:1/4=100] D | DGA BBB | B3 G2 D | DF[FA] [Fc][Fc][Fc] |[M:5/8] [Fc]3 [FA]2 |[M:1/8] D | %6
[M:3/4] DG Bd dd | d4 z2 | z2 z [GA] z2 |[M:5/8] F3- [Fd]2 |[M:1/8] D |[M:3/4] DG AB BB | B3 G2 D | %13
 DF [FA][Fc] [Fc][Fc] |[M:5/8] [Fc]3 [FA]2 |[M:1/8] D |[M:3/4] DG Bd dd | d4 z2 | %18
 [EA][EB] [Ec][GB] [FB][FA] |[M:5/8] G-G- G3 |[M:1/8] d |[M:3/4] d4[K:bass][K:treble] z2 | %22
 [G,B,Gd]3 [DGB]2 D | DG Bd e>d | d4 z2 |[M:5/8] [Ac]3 [DFA]2 |[M:1/8] [DAc] | %27
[M:3/4] [DAc]3 [DFA]2 D |[M:3/8] DFA | [Ac][Bd]>[Ac] |[M:5/8] B-B- B3 |[M:1/8] d | %32
[M:3/4] d4[K:bass][K:treble] z2 | [G,B,Gd]3 [DGB]2 D | DG Bd e>d | d4 z2 |[M:5/8] [Ac]3 [DFA]2 | %37
[M:1/8] [DAc] |[M:3/4] [DAc]3 [DFA]2 D |[M:3/8] DFA | [EFc][DFB][CDA] | %41
[M:5/8] [B,DG]-[B,DG]- [B,DG]3 |] %42
V:2
 z3 z2 [G,B,] | [G,B,][G,B,D][G,CG] [G,DG][G,DG][G,DG] | [G,DG]3[K:bass] [G,B,D]2 [G,B,] | %3
 [D,F,][D,A,D][D,C] [D,A,][D,A,][D,A,] |[M:5/8] [D,A,]3 [D,C]2 |[M:1/8] [F,C] | %6
[M:3/4] [G,B,][G,B,D] [G,D][G,,B,G] [G,,B,G][G,,B,G] | G2 z2 z2 | [C,C][C,C] .C,2 G^C, | %9
[M:5/8] z z2 A,2 |[M:1/8] [F,C] |[M:3/4] [G,B,][K:treble][G,B,D] [G,CG][G,DG] [G,DG][G,DG] | %12
 [G,DG]3[K:bass] [G,B,D]2 [G,B,] | [D,F,][D,A,D] [D,C][D,A,] [D,A,][D,A,] |[M:5/8] [D,A,]3 [D,C]2 | %15
[M:1/8] [F,C] |[M:3/4] [G,B,][K:treble][G,B,D] [G,DG][K:bass][G,,B,G] [G,,B,G][G,,B,G] | %17
 G2 z [A,,F,]2 [B,,G,] | [C,A,][B,,^G,] [A,,A,][D,=G,] [D,D][D,C] | %19
[M:5/8][K:treble] [G,B,D]-[G,B,D]- [G,B,D]3 |[M:1/8] [G,B,G] | %21
[M:3/4][K:bass] [G,B,G]3[K:treble] [G,DG]2 [G,B,G] | G,,B,, D, G,2 D, | %23
 D,G, B,[K:treble][G,B,G] [G,CG]>[G,B,G] | [D,B,]3 [D,A,]2 [D,D] |[M:5/8] [D,D]3 z2 |[M:1/8] D, | %27
[M:3/4] z F, A, D,2 D, |[M:3/8] D,F,A, | [D,D][D,D]>[D,D] | %30
[M:5/8][K:treble] [G,DG]-[G,DG]- [G,DG]3 |[M:1/8] [G,B,G] | %32
[M:3/4][K:bass] [G,B,G]3[K:treble] [G,DG]2 [G,B,G] | G,,B,, D, G,2 D, | %34
 D,G, B,[K:treble][G,B,G] [G,CG]>[G,B,G] | [D,B,]3 [D,A,]2 [D,D] |[M:5/8] [D,D]3 z2 |[M:1/8] D, | %38
[M:3/4] z F, A, D,2 D, |[M:3/8] D,F,A, | D,D,D, |[M:5/8] G,,-G,,- G,,3 |] %42
V:3
 x6 | x6 | x6 | x6 |[M:5/8] x5 |[M:1/8] x |[M:3/4] x6 | z2 D [Dc]2 [DB] | %8
 [EA][EA] [EGA]E- [EB][EGA] |[M:5/8] [DA]3 z2 |[M:1/8] x |[M:3/4] x6 | x6 | x6 |[M:5/8] x5 | %15
[M:1/8] x |[M:3/4] x6 | z2 D [Dc]2 [DB] | x6 |[M:5/8] x5 |[M:1/8] x | %21
[M:3/4] z[K:bass] B,, D,[K:treble] B2 d | x6 | x6 | G2 D [Fc]2 [Ac] |[M:5/8] x5 |[M:1/8] x | %27
[M:3/4] x6 |[M:3/8] x3 | x3 |[M:5/8] x5 |[M:1/8] x |[M:3/4] z[K:bass] B,, D,[K:treble] B2 d | x6 | %34
 x6 | G2 D [Fc]2 [Ac] |[M:5/8] x5 |[M:1/8] x |[M:3/4] x6 |[M:3/8] x3 | x3 |[M:5/8] x5 |] %42
V:4
 x6 | x6 | x3[K:bass] x3 | x6 |[M:5/8] x5 |[M:1/8] x |[M:3/4] x6 | [G,,B,]3 [A,,F,]2 [B,,G,] | %8
 z2 z .^C,3 |[M:5/8] D,-D,- D,3 |[M:1/8] x |[M:3/4] x[K:treble] x5 | x3[K:bass] x3 | x6 | %14
[M:5/8] x5 |[M:1/8] x |[M:3/4] x[K:treble] x2[K:bass] x3 | [G,,B,]4 z2 | x6 |[M:5/8][K:treble] x5 | %20
[M:1/8] x |[M:3/4][K:bass] .G,,2 z2[K:treble] z2 | x6 | x3[K:treble] x3 | x6 |[M:5/8] z F,A, D,2 | %26
[M:1/8] x |[M:3/4] D,4 z2 |[M:3/8] x3 | x3 |[M:5/8][K:treble] x5 |[M:1/8] x | %32
[M:3/4][K:bass] .G,,2 z2[K:treble] z2 | x6 | x3[K:treble] x3 | x6 |[M:5/8] z F,A, D,2 |[M:1/8] x | %38
[M:3/4] D,4 z2 |[M:3/8] x3 | x3 |[M:5/8] x5 |] %42

